gama.ui.shared/icons_svg/dark/gaml/_text.svg

<svg height="18" viewBox="-380.74 -2807.237 24 18" width="24" xmlns="http://www.w3.org/2000/svg"><path d="m-380.3336-2803.3138c-.2275 0-.40625-.2032-.40625-.4615 0-.2585.17875-.4617.40625-.4617h12.1875c.2275 0 .40625.2032.40625.4617 0 .2583-.17875.4615-.40625.4615zm0 3.6923c-.2275 0-.40625-.2031-.40625-.4615 0-.2585.17875-.4616.40625-.4616h12.1875c.2275 0 .40625.2031.40625.4616 0 .2584-.17875.4615-.40625.4615zm0 3.6923c-.2275 0-.40625-.2031-.40625-.4615 0-.2585.17875-.4616.40625-.4616h12.1875c.2275 0 .40625.2031.40625.4616 0 .2584-.17875.4615-.40625.4615zm0 3.6922c-.2275 0-.40625-.203-.40625-.4614 0-.2586.17875-.4616.40625-.4616h7.3125c.2275 0 .40625.203.40625.4616 0 .2584-.17875.4614-.40625.4614z" fill="#999"/></svg>

<?xml version="1.0" encoding="UTF-8" standalone="no"?>
<!DOCTYPE svg PUBLIC "-//W3C//DTD SVG 1.1//EN" "http://www.w3.org/Graphics/SVG/1.1/DTD/svg11.dtd">
<svg xmlns:dc="http://purl.org/dc/elements/1.1/" xmlns:xl="http://www.w3.org/1999/xlink" version="1.1" xmlns="http://www.w3.org/2000/svg" viewBox="-380.73985 -2807.237 24 18" width="24" height="18">
  <defs/>
  <g id="SOURCES" stroke-dasharray="none" stroke="none" stroke-opacity="1" fill="none" fill-opacity="1">
    <title>SOURCES</title>
    <g id="SOURCES_New">
      <title>New</title>
      <g id="Group_10486">
        <g id="Graphic_10219"/>
        <g id="Group_10217">
          <title>text-align-justify</title>
          <g id="Graphic_10218">
            <path d="M -380.3336 -2803.3138 C -380.5611 -2803.3138 -380.73985 -2803.517 -380.73985 -2803.7753 C -380.73985 -2804.0338 -380.5611 -2804.237 -380.3336 -2804.237 L -368.1461 -2804.237 C -367.9186 -2804.237 -367.73985 -2804.0338 -367.73985 -2803.7753 C -367.73985 -2803.517 -367.9186 -2803.3138 -368.1461 -2803.3138 Z M -380.3336 -2799.6215 C -380.5611 -2799.6215 -380.73985 -2799.8246 -380.73985 -2800.083 C -380.73985 -2800.3415 -380.5611 -2800.5446 -380.3336 -2800.5446 L -368.1461 -2800.5446 C -367.9186 -2800.5446 -367.73985 -2800.3415 -367.73985 -2800.083 C -367.73985 -2799.8246 -367.9186 -2799.6215 -368.1461 -2799.6215 Z M -380.3336 -2795.9292 C -380.5611 -2795.9292 -380.73985 -2796.1323 -380.73985 -2796.3907 C -380.73985 -2796.6492 -380.5611 -2796.8523 -380.3336 -2796.8523 L -368.1461 -2796.8523 C -367.9186 -2796.8523 -367.73985 -2796.6492 -367.73985 -2796.3907 C -367.73985 -2796.1323 -367.9186 -2795.9292 -368.1461 -2795.9292 Z M -380.3336 -2792.237 C -380.5611 -2792.237 -380.73985 -2792.44 -380.73985 -2792.6984 C -380.73985 -2792.957 -380.5611 -2793.16 -380.3336 -2793.16 L -373.0211 -2793.16 C -372.7936 -2793.16 -372.61485 -2792.957 -372.61485 -2792.6984 C -372.61485 -2792.44 -372.7936 -2792.237 -373.0211 -2792.237 Z" fill="#999"/>
          </g>
        </g>
      </g>
    </g>
  </g>
</svg>
